src/assets/clam.svg

<svg width="16" height="16" viewBox="0 0 16 16" fill="none" xmlns="http://www.w3.org/2000/svg">
<path d="M16 8C16 12.4183 12.4183 16 8 16C3.58172 16 0 12.4183 0 8C0 3.58172 3.58172 0 8 0C12.4183 0 16 3.58172 16 8Z" fill="#F7F9FB"/>
<path fill-rule="evenodd" clip-rule="evenodd" d="M8 15.4667C12.1237 15.4667 15.4667 12.1237 15.4667 8C15.4667 3.87627 12.1237 0.533333 8 0.533333C3.87627 0.533333 0.533333 3.87627 0.533333 8C0.533333 12.1237 3.87627 15.4667 8 15.4667ZM8 16C12.4183 16 16 12.4183 16 8C16 3.58172 12.4183 0 8 0C3.58172 0 0 3.58172 0 8C0 12.4183 3.58172 16 8 16Z" fill="#C7D6E4"/>
<path fill-rule="evenodd" clip-rule="evenodd" d="M7.99996 3.3186C5.26515 3.3186 2.25987 4.57563 2.07955 6.01223C1.96585 6.91813 3.60882 9.34736 5.30541 11.0185C4.70085 11.5771 4.43786 12.2635 4.40845 12.7164H7.99996H11.5915C11.5621 12.2635 11.2991 11.5771 10.6945 11.0185C12.3911 9.34736 14.0341 6.91813 13.9204 6.01223C13.74 4.57563 10.7348 3.3186 7.99996 3.3186Z" fill="#FF6854"/>
<path opacity="0.2" d="M8.00008 5.77783C5.51119 5.77783 3.40749 6.99265 2.66675 7.55561L3.73341 9.2445C4.29638 8.74079 5.79564 7.73339 8.00008 7.73339C10.2045 7.73339 11.5853 8.74079 12.089 9.2445L13.1556 7.55561C12.4742 6.99265 10.489 5.77783 8.00008 5.77783Z" fill="white"/>
<path fill-rule="evenodd" clip-rule="evenodd" d="M2.89614 5.20387C2.57446 5.498 2.40664 5.78617 2.37364 6.04904C2.35574 6.1917 2.40791 6.45048 2.56918 6.82413C2.72476 7.1846 2.96296 7.60992 3.2616 8.066C3.85862 8.97775 4.6801 9.9865 5.51344 10.8073C5.57115 10.8642 5.60307 10.9422 5.60177 11.0232C5.60048 11.1042 5.56608 11.1811 5.50658 11.2361C5.09128 11.6198 4.8601 12.0643 4.76096 12.42H11.2391C11.14 12.0643 10.9088 11.6198 10.4935 11.2361C10.434 11.1811 10.3996 11.1042 10.3983 11.0232C10.397 10.9422 10.429 10.8642 10.4867 10.8073C11.32 9.9865 12.1415 8.97775 12.7385 8.066C13.0372 7.60992 13.2753 7.1846 13.4309 6.82413C13.5922 6.45048 13.6444 6.1917 13.6265 6.04904C13.5935 5.78617 13.4256 5.498 13.104 5.20387C12.7848 4.91203 12.3369 4.63597 11.7983 4.39755C10.7209 3.92071 9.32683 3.61481 8.00005 3.61481C6.67327 3.61481 5.27917 3.92071 4.20184 4.39755C3.66318 4.63597 3.21532 4.91203 2.89614 5.20387ZM3.96199 3.85566C5.11609 3.34484 6.59203 3.02222 8.00005 3.02222C9.40808 3.02222 10.884 3.34484 12.0381 3.85566C12.6152 4.11107 13.1234 4.41863 13.5038 4.76653C13.8818 5.11213 14.1573 5.51982 14.2145 5.97524C14.2534 6.28553 14.1428 6.67013 13.975 7.05896C13.8015 7.46098 13.5442 7.91727 13.2343 8.39063C12.6643 9.26109 11.9016 10.2112 11.1118 11.0194C11.6199 11.5824 11.8567 12.2273 11.8872 12.6971C11.8925 12.7788 11.8638 12.8591 11.8078 12.9189C11.7517 12.9787 11.6735 13.0126 11.5916 13.0126H4.40855C4.32663 13.0126 4.24837 12.9787 4.19235 12.9189C4.13634 12.8591 4.10757 12.7788 4.11287 12.6971C4.14338 12.2273 4.38025 11.5824 4.88833 11.0194C4.09847 10.2112 3.33582 9.26109 2.76583 8.39063C2.45587 7.91727 2.19861 7.46098 2.0251 7.05896C1.85727 6.67013 1.74671 6.28553 1.78566 5.97524C1.84282 5.51982 2.11828 5.11213 2.49626 4.76653C2.87675 4.41863 3.38495 4.11107 3.96199 3.85566Z" fill="#1D2654"/>
<path fill-rule="evenodd" clip-rule="evenodd" d="M6.87282 3.15918C6.78475 3.09479 6.66116 3.11399 6.59678 3.20206C6.51472 3.31431 6.46849 3.49063 6.4383 3.68059C6.40644 3.88106 6.38744 4.13375 6.381 4.42766C6.3681 5.01624 6.40529 5.78647 6.49927 6.66786C6.66822 8.25238 7.02201 10.2082 7.6064 12.1313C6.48026 11.0808 5.65696 9.54753 5.13166 8.08467C4.83185 7.24975 4.63203 6.44577 4.52866 5.781C4.42362 5.10549 4.42318 4.60393 4.49659 4.35617C4.52758 4.25157 4.46791 4.14165 4.36331 4.11066C4.25871 4.07967 4.14879 4.13934 4.1178 4.24394C4.01737 4.58292 4.03246 5.16115 4.13828 5.8417C4.24577 6.53298 4.45215 7.36132 4.75984 8.21818C5.37308 9.92595 6.40048 11.7791 7.8825 12.8752C7.95178 12.9265 8.04627 12.9269 8.116 12.8763C8.18573 12.8257 8.21461 12.7357 8.18736 12.6539C7.48926 10.5596 7.07761 8.36571 6.89211 6.62597C6.79936 5.75605 6.76355 5.00341 6.77597 4.43631C6.78219 4.15238 6.80043 3.91903 6.82847 3.7426C6.85818 3.55567 6.89449 3.46424 6.91571 3.43522C6.98009 3.34715 6.96089 3.22356 6.87282 3.15918Z" fill="#1D2654"/>
<path fill-rule="evenodd" clip-rule="evenodd" d="M9.12718 3.15918C9.21525 3.09479 9.33884 3.11399 9.40322 3.20206C9.48528 3.31431 9.53151 3.49063 9.5617 3.68059C9.59356 3.88106 9.61256 4.13375 9.619 4.42766C9.63189 5.01624 9.59471 5.78647 9.50073 6.66786C9.33178 8.25238 8.97799 10.2082 8.3936 12.1313C9.51974 11.0808 10.343 9.54753 10.8683 8.08467C11.1681 7.24975 11.368 6.44577 11.4713 5.781C11.5764 5.10549 11.5768 4.60393 11.5034 4.35617C11.4724 4.25157 11.5321 4.14165 11.6367 4.11066C11.7413 4.07967 11.8512 4.13934 11.8822 4.24394C11.9826 4.58292 11.9675 5.16115 11.8617 5.8417C11.7542 6.53298 11.5479 7.36132 11.2402 8.21818C10.6269 9.92595 9.59952 11.7791 8.1175 12.8752C8.04822 12.9265 7.95373 12.9269 7.884 12.8763C7.81427 12.8257 7.78539 12.7357 7.81264 12.6539C8.51074 10.5596 8.92239 8.36571 9.10789 6.62597C9.20064 5.75605 9.23645 5.00341 9.22403 4.43631C9.21781 4.15238 9.19957 3.91903 9.17153 3.7426C9.14182 3.55567 9.10551 3.46424 9.08429 3.43522C9.01991 3.34715 9.03911 3.22356 9.12718 3.15918Z" fill="#1D2654"/>
</svg>

<svg width="16" height="16" fill="none" xmlns="http://www.w3.org/2000/svg"><path d="M16 8A8 8 0 1 1 0 8a8 8 0 0 1 16 0Z" fill="#F7F9FB"/><path fill-rule="evenodd" clip-rule="evenodd" d="M8 15.467A7.467 7.467 0 1 0 8 .533a7.467 7.467 0 0 0 0 14.934ZM8 16A8 8 0 1 0 8 0a8 8 0 0 0 0 16Z" fill="#C7D6E4"/><path fill-rule="evenodd" clip-rule="evenodd" d="M8 3.319c-2.735 0-5.74 1.257-5.92 2.693-.114.906 1.529 3.335 3.225 5.006-.604.56-.867 1.245-.897 1.698h7.183c-.029-.452-.292-1.139-.896-1.697 1.696-1.672 3.34-4.1 3.225-5.007C13.74 4.576 10.735 3.32 8 3.32Z" fill="#FF6854"/><path opacity=".2" d="M8 5.778c-2.489 0-4.593 1.215-5.333 1.778l1.066 1.689C4.296 8.74 5.796 7.732 8 7.732s3.585 1.008 4.089 1.512l1.067-1.69c-.682-.56-2.667-1.775-5.156-1.775Z" fill="#fff"/><path fill-rule="evenodd" clip-rule="evenodd" d="M2.896 5.204c-.322.294-.49.582-.522.845-.018.143.034.401.195.775.156.36.394.786.693 1.242.597.912 1.418 1.92 2.251 2.741a.297.297 0 0 1-.006.43 2.604 2.604 0 0 0-.746 1.183h6.478c-.099-.356-.33-.8-.746-1.184a.296.296 0 0 1-.006-.429 17.51 17.51 0 0 0 2.252-2.741c.298-.456.536-.881.692-1.242.161-.374.213-.632.196-.775-.034-.263-.201-.551-.523-.845-.32-.292-.767-.568-1.306-.806C10.721 3.92 9.327 3.615 8 3.615s-2.72.306-3.798.783c-.539.238-.987.514-1.306.806Zm1.066-1.348c1.154-.511 2.63-.834 4.038-.834 1.408 0 2.884.323 4.038.834.577.255 1.085.563 1.466.91.378.346.653.754.71 1.21.04.31-.071.694-.239 1.083-.173.402-.43.858-.74 1.332a18.14 18.14 0 0 1-2.123 2.628c.508.563.745 1.208.775 1.678a.296.296 0 0 1-.295.316H4.409a.296.296 0 0 1-.296-.316c.03-.47.267-1.115.775-1.678a18.136 18.136 0 0 1-2.122-2.628 9.132 9.132 0 0 1-.74-1.332c-.169-.389-.28-.773-.24-1.084.057-.455.332-.863.71-1.208.38-.348.889-.656 1.466-.911Z" fill="#1D2654"/><path fill-rule="evenodd" clip-rule="evenodd" d="M6.873 3.16a.198.198 0 0 0-.276.042c-.082.112-.129.289-.159.479-.032.2-.05.453-.057.747a18.21 18.21 0 0 0 .118 2.24 30.57 30.57 0 0 0 1.107 5.463c-1.126-1.05-1.949-2.583-2.474-4.046-.3-.835-.5-1.64-.603-2.304-.105-.676-.106-1.177-.032-1.425a.198.198 0 0 0-.38-.112c-.1.339-.085.917.021 1.598.108.691.314 1.52.622 2.376.613 1.708 1.64 3.561 3.123 4.657a.197.197 0 0 0 .304-.221c-.698-2.094-1.11-4.288-1.295-6.028a17.828 17.828 0 0 1-.116-2.19c.006-.284.024-.517.052-.693.03-.187.066-.279.088-.308a.198.198 0 0 0-.043-.276Z" fill="#1D2654"/><path fill-rule="evenodd" clip-rule="evenodd" d="M9.127 3.16a.198.198 0 0 1 .276.042c.082.112.129.289.159.479.032.2.05.453.057.747.013.588-.024 1.358-.118 2.24a30.442 30.442 0 0 1-1.107 5.463c1.126-1.05 1.949-2.583 2.474-4.046.3-.835.5-1.64.603-2.304.105-.676.106-1.177.032-1.425a.198.198 0 0 1 .38-.112c.1.339.085.917-.021 1.598a13.23 13.23 0 0 1-.622 2.376c-.613 1.708-1.64 3.561-3.123 4.657a.197.197 0 0 1-.304-.221c.698-2.094 1.11-4.288 1.295-6.028.093-.87.128-1.623.116-2.19a5.337 5.337 0 0 0-.052-.693c-.03-.187-.066-.279-.088-.308a.198.198 0 0 1 .043-.276Z" fill="#1D2654"/></svg>
